!!!OTL: Herzog Ernst
!!!ARE: Europa, Mitteleuropa, Deutschland
!!!SCT: A0004C
!!!YEM: Copyright 1995, estate of Helmut Schaffrath.
**kern
*ICvox
*Ivox
*M4/1
*k[f#]
*e:
{1a
=1
1a
1e
1a
1a
=2
1a
1b
1ccn
1ccn
=3
1b
1a
1r}
{1ccn
=4
1ccn
1ccn
1ccn
1ccn
=5
1ddn
1ccn
1b}
{1a
=6
1ccn
1b
1a
1a
=7
1e
1e
1r}
{1a
=8
1a
1e
1a
1a
=9
1a
1b
1ccn
1ccn
=10
1b
1a
1r}
{1ccn
=11
1ccn
1ccn
1ccn
1ccn
=12
1ddn
1ccn
1b}
{1a
=13
1ccn
1b
1a
1a
=14
1e
1e}
{1b
1ddn
=15
1ccn
1b
1a
1gn
=16
1gn
1gn
1e
1cn}
=17
{1r
1gn
1gn
1gn
=18
1gn
1gn
1gn
1a
=19
1gn
1r}
{1a
1b
=20
1ccn
1b
1a
1gn
=21
1a
0e
1fn
=22
[0e
0e]}
==
!!!AGN: Romanze, Ballade, Lied
!!!ONB: ESAC (Essen Associative Code) Database: ALTDEU
!!!AMT: simple quadruple
!!!AIN: vox
!!!EED: Helmut Schaffrath
!!!EEV: 1.0
*-
